X: 021345
T: Brian \'O L\'aimh\'in
S: "Ceol Rince na hEireann" 1/95
Z: B.Black
L: 1/8
M: 4/4
R: reel
K: G
G2 Bd gedB|GBdB cBAB|G2 Bd gfga|bage dBAB :|
(3efe eB dedB|(3efe eB dBAB|(3efe eB dega|bage dBAB :|
